X:164
T:The Liverpool Judies (a)
M:3/4
L:1/8
Q:1/4=100
K:Ab
C2|\
EE E2 E2|E2 E2 E2|F2 G2 E2|A4 AB|
c2 c2 c2|d2 c2 B2|A2 G2 F2|E4 E2|
c2 c2 c2|d2 c2 B2|A2 c2 A2|D4 CD|
E2 E2 E2|E2 D2 C2|B,2 A,2 G,2|A,4 CD|
E2 FE E2|E2 FE E2|E2 F2 G2|A4 C2|
E2 E2 E2|E2 D2 C2|B,2 A,2 G,2|A,4 ||
